file/kroger.svg

<svg clip-rule="evenodd" fill-rule="evenodd" stroke-linejoin="round" stroke-miterlimit="1.41421" viewBox="0 0 560 400" xmlns="http://www.w3.org/2000/svg"><path d="m262.1 193.3c-1.3 0-2.5.5-3.4 1.4s-1.4 2.1-1.4 3.4.5 2.5 1.4 3.4 2 1.4 3.4 1.4c1.3 0 2.4-.5 3.4-1.4.9-1 1.4-2.1 1.4-3.4s-.5-2.4-1.4-3.4c-1-.9-2.1-1.4-3.4-1.4zm1.1 8.1c-.1-.2-.1-.5-.1-.9s-.1-.7-.1-.8c-.1-.2-.2-.4-.5-.5-.2 0-.3-.1-.6-.1h-.4-.3v2.3h-1.7v-6.4h3.1c.5 0 .9.1 1.3.3.6.3.8.8.8 1.5 0 .5-.1.9-.5 1.2-.3.2-.7.4-1.1.4.4.1.7.2.9.4.4.3.6.8.6 1.4v1.2zm-.1-4.5c0 .4-.1.6-.3.8s-.5.2-.9.2h-.6v-1.9h.4c.4 0 .7 0 1 .1.2.2.4.4.4.8zm-84.6-20.2c-7 0-9.7-8-9.7-19s2.7-19 9.7-19 9.7 8 9.7 19c0 11.1-2.7 19-9.7 19zm60.5-19c0 11.1-2.7 19.1-9.7 19.1s-9.8-8-9.8-19.1 2.8-19.1 9.8-19.1c7-.1 9.7 8 9.7 19.1zm48.8-9.6h-17.5c1.3-5.7 4.1-9.4 8.7-9.4 4.7 0 7.5 3.6 8.8 9.4zm57.9-48.6c-8.1-15.3-19.6-29-34.2-40.7-29.8-23.9-69.4-37.1-111.5-37.1s-81.7 13.2-111.5 37.1c-14.7 11.8-26.2 25.5-34.2 40.7-8.4 15.9-12.6 32.8-12.6 50.3 0 17.4 4.3 34.4 12.6 50.3 8 15.3 19.5 29 34.2 40.7 29.9 24 69.5 37.1 111.5 37.1 42.1 0 81.7-13.2 111.5-37.1 14.6-11.7 26.1-25.4 34.2-40.7 8.4-15.9 12.6-32.8 12.6-50.3.1-17.4-4.2-34.3-12.6-50.3zm-223.7 11.4c.6 29.8-19.3 34.4-16.1 34.4 20.3.3 16.6 40.8 17 43.2h-16.2s.1-19.1 0-20.6c-.9-17.3-14.5-18.7-14.5-17.2v37.8h-15.3v-90.6h15.3s-.3 35.9 0 38.7c0 0 15.9-2.1 15-35.3 0-.7.3-6.6 3-13.7 0-.1 0-.1.1-.2.1-.3.2-.5.3-.7 5.6-13.3 17-24.6 37.1-24.6 41.9 0 39.1 56.3 39.1 56.4h-15.6c-.4-.7 2.8-46.4-25.2-46-12.4.2-18.5 9.8-21.8 20.4-1.5 5.3-2.3 11.3-2.2 18zm18.7 40.3v37.3h-14.4l.1-61.7h11.6l1.5 4s4.2-3.8 10.2-3.9c3.4-.1 5.3.9 5.3.9v13.5s-7.4.1-11.3 3.6c-1.4 1.3-3 2.9-3 6.3zm14 6.6c0-17.1 8.4-30.9 23.7-30.9 15.6 0 23.7 13.8 23.7 30.9 0 17-7.6 30.9-23.7 30.9-16.4-.1-23.7-13.9-23.7-30.9zm56.1 91.5c-41.8 0-39.7-52.3-39.7-52.3h15.6c.2 1.2-2.9 42.7 25.8 42 26.4-.8 26-40.6 25.3-52.7-2.5 1-5.4 2.3-8.6 2.3-16.5 0-23.8-13.7-23.8-30.9 0-17.1 8.5-31.2 23.8-30.8 2.7.1 6.5 1.3 8.4 3.2v-3.4h15.3v63.8c.1 4.6 3.2 58.8-42.1 58.8zm55.3-47c-1.1 1.1-2.5 1.6-4.1 1.6s-3-.6-4.1-1.7-1.7-2.5-1.7-4.1c0-1.7.6-3.1 1.8-4.2 1.1-1.1 2.5-1.6 4-1.6 1.6 0 3 .6 4.1 1.7s1.7 2.5 1.7 4.1c.1 1.7-.5 3-1.7 4.2zm37.6-43.9h-14-19.4c.1 10.7 2.9 18.4 9.7 18.4 5.6 0 8.4-5.2 9.3-13h14c-1.6 14.2-9.2 24.9-23.4 24.9-16.4 0-23.7-13.8-23.7-30.9s8.4-30.9 23.7-30.9c12.6 0 20.2 8.9 22.8 21.2 0 0 1.1 4.6 1 10.3zm31.8-17s-7.4.1-11.3 3.6c-1.3 1.2-2.9 2.8-2.9 6.2v37.3h-14.5l.1-61.7h11.7l1.5 4s4.1-3.8 10.2-3.9c3.4-.1 5.3.9 5.3.9v13.6zm23.1-47.1c-8.8-16.9-21.3-32.1-37.2-45.1-32.4-26.6-75.6-41.3-121.4-41.3s-89 14.7-121.5 41.3c-15.9 13-28.4 28.2-37.1 45.1-9.1 17.6-13.7 36.4-13.7 55.7s4.6 38.1 13.7 55.7c8.7 16.9 21.2 32.1 37.1 45.2 32.5 26.6 75.6 41.2 121.5 41.2 45.8 0 89-14.7 121.4-41.3 15.9-13 28.4-28.2 37.2-45.2 9.1-17.6 13.7-36.4 13.7-55.7 0-19.2-4.6-38-13.7-55.6zm-158.6 192.4c-92.2 0-167-61.2-167-136.7s74.7-136.7 167-136.7c92.2 0 166.9 61.2 166.9 136.7s-74.7 136.7-166.9 136.7z" fill="#0468b3" fill-rule="nonzero" transform="matrix(.783517 0 0 .783517 123.297 82.4724)"/></svg>

<?xml version="1.0" encoding="UTF-8" standalone="no"?>
<!DOCTYPE svg PUBLIC "-//W3C//DTD SVG 1.1//EN" "http://www.w3.org/Graphics/SVG/1.1/DTD/svg11.dtd">
<svg width="100%" height="100%" viewBox="0 0 560 400" version="1.1" xmlns="http://www.w3.org/2000/svg" xmlns:xlink="http://www.w3.org/1999/xlink" xml:space="preserve" xmlns:serif="http://www.serif.com/" style="fill-rule:evenodd;clip-rule:evenodd;stroke-linejoin:round;stroke-miterlimit:1.41421;">
    <g id="logosvg.com_1_" transform="matrix(0.783517,0,0,0.783517,123.297,82.4724)">
        <path d="M262.1,193.3C260.8,193.3 259.6,193.8 258.7,194.7C257.8,195.6 257.3,196.8 257.3,198.1C257.3,199.4 257.8,200.6 258.7,201.5C259.6,202.4 260.7,202.9 262.1,202.9C263.4,202.9 264.5,202.4 265.5,201.5C266.4,200.5 266.9,199.4 266.9,198.1C266.9,196.8 266.4,195.7 265.5,194.7C264.5,193.8 263.4,193.3 262.1,193.3ZM263.2,201.4C263.1,201.2 263.1,200.9 263.1,200.5C263.1,200.1 263,199.8 263,199.7C262.9,199.5 262.8,199.3 262.5,199.2C262.3,199.2 262.2,199.1 261.9,199.1L261.5,199.1L261.2,199.1L261.2,201.4L259.5,201.4L259.5,195L262.6,195C263.1,195 263.5,195.1 263.9,195.3C264.5,195.6 264.7,196.1 264.7,196.8C264.7,197.3 264.6,197.7 264.2,198C263.9,198.2 263.5,198.4 263.1,198.4C263.5,198.5 263.8,198.6 264,198.8C264.4,199.1 264.6,199.6 264.6,200.2L264.6,201.4L263.2,201.4ZM263.1,196.9C263.1,197.3 263,197.5 262.8,197.7C262.6,197.9 262.3,197.9 261.9,197.9L261.3,197.9L261.3,196L261.7,196C262.1,196 262.4,196 262.7,196.1C262.9,196.3 263.1,196.5 263.1,196.9ZM178.5,176.7C171.5,176.7 168.8,168.7 168.8,157.7C168.8,146.7 171.5,138.7 178.5,138.7C185.5,138.7 188.2,146.7 188.2,157.7C188.2,168.8 185.5,176.7 178.5,176.7ZM239,157.7C239,168.8 236.3,176.8 229.3,176.8C222.3,176.8 219.5,168.8 219.5,157.7C219.5,146.6 222.3,138.6 229.3,138.6C236.3,138.5 239,146.6 239,157.7ZM287.8,148.1L270.3,148.1C271.6,142.4 274.4,138.7 279,138.7C283.7,138.7 286.5,142.3 287.8,148.1ZM345.7,99.5C337.6,84.2 326.1,70.5 311.5,58.8C281.7,34.9 242.1,21.7 200,21.7C157.9,21.7 118.3,34.9 88.5,58.8C73.8,70.6 62.3,84.3 54.3,99.5C45.9,115.4 41.7,132.3 41.7,149.8C41.7,167.2 46,184.2 54.3,200.1C62.3,215.4 73.8,229.1 88.5,240.8C118.4,264.8 158,277.9 200,277.9C242.1,277.9 281.7,264.7 311.5,240.8C326.1,229.1 337.6,215.4 345.7,200.1C354.1,184.2 358.3,167.3 358.3,149.8C358.4,132.4 354.1,115.5 345.7,99.5ZM122,110.9C122.6,140.7 102.7,145.3 105.9,145.3C126.2,145.6 122.5,186.1 122.9,188.5L106.7,188.5C106.7,188.5 106.8,169.4 106.7,167.9C105.8,150.6 92.2,149.2 92.2,150.7L92.2,188.5L76.9,188.5L76.9,97.9L92.2,97.9C92.2,97.9 91.9,133.8 92.2,136.6C92.2,136.6 108.1,134.5 107.2,101.3C107.2,100.6 107.5,94.7 110.2,87.6C110.2,87.5 110.2,87.5 110.3,87.4C110.4,87.1 110.5,86.9 110.6,86.7C116.2,73.4 127.6,62.1 147.7,62.1C189.6,62.1 186.8,118.4 186.8,118.5L171.2,118.5C170.8,117.8 174,72.1 146,72.5C133.6,72.7 127.5,82.3 124.2,92.9C122.7,98.2 121.9,104.2 122,110.9ZM140.7,151.2L140.7,188.5L126.3,188.5L126.4,126.8L138,126.8L139.5,130.8C139.5,130.8 143.7,127 149.7,126.9C153.1,126.8 155,127.8 155,127.8L155,141.3C155,141.3 147.6,141.4 143.7,144.9C142.3,146.2 140.7,147.8 140.7,151.2ZM154.7,157.8C154.7,140.7 163.1,126.9 178.4,126.9C194,126.9 202.1,140.7 202.1,157.8C202.1,174.8 194.5,188.7 178.4,188.7C162,188.6 154.7,174.8 154.7,157.8ZM210.8,249.3C169,249.3 171.1,197 171.1,197L186.7,197C186.9,198.2 183.8,239.7 212.5,239C238.9,238.2 238.5,198.4 237.8,186.3C235.3,187.3 232.4,188.6 229.2,188.6C212.7,188.6 205.4,174.9 205.4,157.7C205.4,140.6 213.9,126.5 229.2,126.9C231.9,127 235.7,128.2 237.6,130.1L237.6,126.7L252.9,126.7L252.9,190.5C253,195.1 256.1,249.3 210.8,249.3ZM266.1,202.3C265,203.4 263.6,203.9 262,203.9C260.4,203.9 259,203.3 257.9,202.2C256.8,201.1 256.2,199.7 256.2,198.1C256.2,196.4 256.8,195 258,193.9C259.1,192.8 260.5,192.3 262,192.3C263.6,192.3 265,192.9 266.1,194C267.2,195.1 267.8,196.5 267.8,198.1C267.9,199.8 267.3,201.1 266.1,202.3ZM303.7,158.4L289.7,158.4L270.3,158.4C270.4,169.1 273.2,176.8 280,176.8C285.6,176.8 288.4,171.6 289.3,163.8L303.3,163.8C301.7,178 294.1,188.7 279.9,188.7C263.5,188.7 256.2,174.9 256.2,157.8C256.2,140.7 264.6,126.9 279.9,126.9C292.5,126.9 300.1,135.8 302.7,148.1C302.7,148.1 303.8,152.7 303.7,158.4ZM335.5,141.4C335.5,141.4 328.1,141.5 324.2,145C322.9,146.2 321.3,147.8 321.3,151.2L321.3,188.5L306.8,188.5L306.9,126.8L318.6,126.8L320.1,130.8C320.1,130.8 324.2,127 330.3,126.9C333.7,126.8 335.6,127.8 335.6,127.8L335.6,141.4L335.5,141.4ZM358.6,94.3C349.8,77.4 337.3,62.2 321.4,49.2C289,22.6 245.8,7.9 200,7.9C154.2,7.9 111,22.6 78.5,49.2C62.6,62.2 50.1,77.4 41.4,94.3C32.3,111.9 27.7,130.7 27.7,150C27.7,169.3 32.3,188.1 41.4,205.7C50.1,222.6 62.6,237.8 78.5,250.9C111,277.5 154.1,292.1 200,292.1C245.8,292.1 289,277.4 321.4,250.8C337.3,237.8 349.8,222.6 358.6,205.6C367.7,188 372.3,169.2 372.3,149.9C372.3,130.7 367.7,111.9 358.6,94.3ZM200,286.7C107.8,286.7 33,225.5 33,150C33,74.5 107.7,13.3 200,13.3C292.2,13.3 366.9,74.5 366.9,150C366.9,225.5 292.2,286.7 200,286.7Z" style="fill:rgb(4,104,179);fill-rule:nonzero;"/>
    </g>
</svg>
